src/images/2.svg

<svg fill="none" height="33" viewBox="0 0 34 33" width="34" xmlns="http://www.w3.org/2000/svg"><path d="m9.63379 2.80008-2.38333-2.383332c-4 3.050002-6.633338 7.750002-6.866671 13.083352h3.333331c.25-4.41669 2.51667-8.28335 5.91667-10.70002zm20.65001 10.70002h3.3333c-.25-5.33335-2.8833-10.03335-6.8666-13.083352l-2.3667 2.383332c3.3667 2.41667 5.65 6.28333 5.9 10.70002zm-3.2833.8333c0-5.11665-2.7334-9.39999-7.5-10.53332v-1.13333c0-1.38334-1.1167-2.500002-2.5-2.500002-1.3834 0-2.5 1.116662-2.5 2.500002v1.13333c-4.78338 1.13333-7.50004 5.4-7.50004 10.53332v8.3333l-3.33334 3.3334v1.6666h26.66668v-1.6666l-3.3333-3.3334zm-10 18.3333c.2333 0 .45-.0166.6666-.0666 1.0834-.2334 1.9667-.9667 2.4-1.9667.1667-.4.25-.8333.25-1.3h-6.6666c.0166 1.8333 1.5 3.3333 3.35 3.3333z" fill="#fff"/></svg>

<svg fill="none" height="33" width="34" xmlns="http://www.w3.org/2000/svg"><path d="M9.634 2.8L7.25.417C3.25 3.467.617 8.167.384 13.5h3.333A14.076 14.076 0 0 1 9.634 2.8zm20.65 10.7h3.333c-.25-5.333-2.883-10.033-6.866-13.083L24.384 2.8c3.367 2.417 5.65 6.283 5.9 10.7zM27 14.333c0-5.116-2.734-9.4-7.5-10.533V2.667c0-1.384-1.117-2.5-2.5-2.5a2.497 2.497 0 0 0-2.5 2.5V3.8C9.716 4.933 7 9.2 7 14.333v8.334L3.666 26v1.667h26.667V26L27 22.667zM17 32.667c.233 0 .45-.017.666-.067a3.382 3.382 0 0 0 2.4-1.967c.167-.4.25-.833.25-1.3H13.65A3.357 3.357 0 0 0 17 32.667z" fill="#fff"/></svg>
